X: 19130
T: Irish Washerwoman, The
R: jig
M: 6/8
K: Adorian
|:B|cAA E2 A|cAc edc|BGG DGG|BGB dcB|
cAA EAA|cA/B/c e2 f|gfg dcB|cA^G A2:|
K: Amin
|:d|cee Aee|cea c’ba|gdd Gdd|gdg ba^g|
faa e2 a|daa c2 a|dfe dcB|cA^G A2:|

